src/standard/backlog.svg

<svg xmlns="http://www.w3.org/2000/svg" viewBox="0 0 36 36">
  <path d="M27 26.38H5a.62.62 0 0 0-.62.62v4a.62.62 0 0 0 .62.62h22a.62.62 0 0 0 .62-.62v-4a.62.62 0 0 0-.62-.62Zm-.62 4H5.62v-2.76h20.76Zm4.62-11H9a.62.62 0 0 0-.62.62v4a.62.62 0 0 0 .62.62h22a.62.62 0 0 0 .62-.62v-4a.62.62 0 0 0-.62-.62Zm-.62 4H9.62v-2.76h20.76ZM5 17.62h22a.62.62 0 0 0 .62-.62v-4a.62.62 0 0 0-.62-.62H5a.62.62 0 0 0-.62.62v4a.62.62 0 0 0 .62.62Zm.62-4h20.76v2.76H5.62ZM28 6.38h-1.49l.93-.94c.58-.56-.32-1.47-.88-.88l-2 2a.63.63 0 0 0 0 .88l2 2a.62.62 0 0 0 .88-.88l-.93-.94H28A2.39 2.39 0 0 1 30.38 10v7a.62.62 0 0 0 1.24 0v-7A3.62 3.62 0 0 0 28 6.38Z"/>
</svg>

<svg id="bd731d03-98a9-4361-a201-71885c38d93a" data-name="Icon" xmlns="http://www.w3.org/2000/svg" viewBox="0 0 36 36">
  <title>Backlog icon - Black</title>
<desc>rally, engineer, design, process, plan, project, collaboration, workfront, management, agile, diagrams and graphs</desc>
<metadata><?xpacket begin="﻿" id="W5M0MpCehiHzreSzNTczkc9d"?>
<x:xmpmeta xmlns:x="adobe:ns:meta/" x:xmptk="Adobe XMP Core 8.0-c001 1.000000, 0000/00/00-00:00:00        ">
   <rdf:RDF xmlns:rdf="http://www.w3.org/1999/02/22-rdf-syntax-ns#">
      <rdf:Description rdf:about=""
            xmlns:xmp="http://ns.adobe.com/xap/1.0/"
            xmlns:dc="http://purl.org/dc/elements/1.1/"
            xmlns:cq="http://www.day.com/jcr/cq/1.0"
            xmlns:tiff="http://ns.adobe.com/tiff/1.0/">
         <xmp:rhcc-effective-on>2023-12-08T17:34:44.887Z</xmp:rhcc-effective-on>
         <xmp:rhcc-metadata-complete-moderator>pending</xmp:rhcc-metadata-complete-moderator>
         <xmp:rhcc-translation-id>TRAab0139ac-439f-41e5-aa3f-fa98a42d5d6b</xmp:rhcc-translation-id>
         <xmp:brand-content-type>Icon</xmp:brand-content-type>
         <xmp:CreateDate>2023-12-08T17:34:44.887Z</xmp:CreateDate>
         <xmp:rhcc-effective-on-set-on-upload>true</xmp:rhcc-effective-on-set-on-upload>
         <xmp:rhcc-metadata-complete-uploader>pending</xmp:rhcc-metadata-complete-uploader>
         <xmp:rhcc-file-last-modified>2023-12-08T17:35:17.025Z</xmp:rhcc-file-last-modified>
         <xmp:rhcc-audience>rhcc-audience:internal</xmp:rhcc-audience>
         <xmp:rhcc-rights-restricted>no</xmp:rhcc-rights-restricted>
         <xmp:brand-content-subtype>Icon</xmp:brand-content-subtype>
         <xmp:rhcc-derivative-id>DERab0139ac-439f-41e5-aa3f-fa98a42d5d6b</xmp:rhcc-derivative-id>
         <xmp:brand-logo-color>Black</xmp:brand-logo-color>
         <xmp:rhcc-notify-portal-subscribers-on-change>yes</xmp:rhcc-notify-portal-subscribers-on-change>
         <dc:format>image/svg+xml</dc:format>
         <dc:modified>2024-02-09T20:34:01.646Z</dc:modified>
         <dc:title>
            <rdf:Alt>
               <rdf:li xml:lang="x-default">Backlog icon - Black</rdf:li>
            </rdf:Alt>
         </dc:title>
         <dc:description>
            <rdf:Alt>
               <rdf:li xml:lang="x-default">rally, engineer, design, process, plan, project, collaboration, workfront, management, agile, diagrams and graphs</rdf:li>
            </rdf:Alt>
         </dc:description>
         <cq:lastReplicationAction_scene7>Activate</cq:lastReplicationAction_scene7>
         <cq:lastReplicationAction_publish>Activate</cq:lastReplicationAction_publish>
         <cq:lastReplicated_publish>2024-02-09T22:21:32.838Z</cq:lastReplicated_publish>
         <cq:lastReplicatedBy>workflow-process-service</cq:lastReplicatedBy>
         <cq:lastReplicationAction>Activate</cq:lastReplicationAction>
         <cq:lastReplicatedBy_publish>workflow-process-service</cq:lastReplicatedBy_publish>
         <cq:isDelivered>true</cq:isDelivered>
         <cq:lastReplicated>2024-02-09T22:21:32.838Z</cq:lastReplicated>
         <cq:lastReplicatedBy_scene7>workflow-process-service</cq:lastReplicatedBy_scene7>
         <cq:lastReplicated_scene7>2024-02-09T22:21:32.838Z</cq:lastReplicated_scene7>
         <tiff:ImageLength>36</tiff:ImageLength>
         <tiff:ImageWidth>36</tiff:ImageWidth>
      </rdf:Description>
   </rdf:RDF>
</x:xmpmeta>
                                                                                                    
                                                                                                    
                                                                                                    
                                                                                                    
                                                                                                    
                                                                                                    
                                                                                                    
                                                                                                    
                                                                                                    
                                                                                                    
                                 
<?xpacket end="w"?></metadata>
<g>
    <path d="M27,26.38H5a.62.62,0,0,0-.62.62v4a.62.62,0,0,0,.62.62H27a.62.62,0,0,0,.62-.62V27A.62.62,0,0,0,27,26.38Zm-.62,4H5.62V27.62H26.38Z"/>
    <path d="M31,19.38H9a.62.62,0,0,0-.62.62v4a.62.62,0,0,0,.62.62H31a.62.62,0,0,0,.62-.62V20A.62.62,0,0,0,31,19.38Zm-.62,4H9.62V20.62H30.38Z"/>
    <path d="M5,17.62H27a.62.62,0,0,0,.62-.62V13a.62.62,0,0,0-.62-.62H5a.62.62,0,0,0-.62.62v4A.62.62,0,0,0,5,17.62Zm.62-4H26.38v2.76H5.62Z"/>
    <path d="M28,6.38H26.51l.93-.94c.58-.56-.32-1.47-.88-.88l-2,2a.63.63,0,0,0,0,.88l2,2a.62.62,0,0,0,.88-.88l-.93-.94H28A2.39,2.39,0,0,1,30.38,10v7a.62.62,0,0,0,1.24,0V10A3.62,3.62,0,0,0,28,6.38Z"/>
  </g>
</svg>
